app/assets/images/heroicons/outline/backspace.svg

<svg width="24" height="24" viewBox="0 0 24 24" fill="none" xmlns="http://www.w3.org/2000/svg">
<path d="M12 9.75L14.25 12M14.25 12L16.5 14.25M14.25 12L16.5 9.75M14.25 12L12 14.25M9.42051 19.1705L3.04551 12.7955C2.60617 12.3562 2.60617 11.6438 3.04551 11.2045L9.42051 4.82951C9.63149 4.61853 9.91764 4.5 10.216 4.5L19.5 4.5C20.7427 4.5 21.75 5.50736 21.75 6.75V17.25C21.75 18.4926 20.7427 19.5 19.5 19.5H10.216C9.91764 19.5 9.63149 19.3815 9.42051 19.1705Z" stroke="#0F172A" stroke-width="1.5" stroke-linecap="round" stroke-linejoin="round"/>
</svg>

<svg xmlns="http://www.w3.org/2000/svg" fill="none" viewBox="0 0 24 24" stroke-width="1.5" stroke="currentColor" aria-hidden="true" data-slot="icon">
  <path stroke-linecap="round" stroke-linejoin="round" d="M12 9.75 14.25 12m0 0 2.25 2.25M14.25 12l2.25-2.25M14.25 12 12 14.25m-2.58 4.92-6.374-6.375a1.125 1.125 0 0 1 0-1.59L9.42 4.83c.21-.211.497-.33.795-.33H19.5a2.25 2.25 0 0 1 2.25 2.25v10.5a2.25 2.25 0 0 1-2.25 2.25h-9.284c-.298 0-.585-.119-.795-.33Z"/>
</svg>
